X:763
T:Heights of Alma ( AKA Rakes of Mallow )
M:2/4
L:1/16
K:G
|:"G"G2B2 G2B2|G2B2 cBAG|"D"F2A2 F2A2|F2A2 dcBA|G2B2 G2B2|
"G"G2B2 d4|"D"cBAG FGAc|"G"B2G2 G4:||:"G"g2fe d2c2|BABc d4|
g2fe d2c2|BABc "D"A4|"G"g2fe d2c2|BABc d4|"D"cBAG FGAc|"G"B2G2 G4:|
